X:22
T:Wounded Hussar, The
T:Wounded Huzzar, The
R:slow air
H:A version of "Captain O'Kane", Carolan tune #26
Z:id:hn-slowair-22
M:3/4
L:1/8
Q:1/4=90
K:Ador
z2 | E {G}HA3 A>B | c4{dc} B{cB}A | B Hd2 d{A}B{cB}A | {F}G4 AB |
{f}g4 a2 | e4{fe} dB | c4{dc} A2 | B4{cB} A2 | G E2{FE} DEG | A2{c}A2{c}A2- | A4 :|
A>B | c4 B/{cB}A/B/^c/ | d4 A>B | c3{dc}B c/d/e/f/ | g{d}He3 A>B |
c3{dc}B c/d/e/f/ | gHa2{b}a/g/ e{fe}d | e {g}a3 {b}a2- | a4 {b}ab |
c'3 a{b}af | g2{agf}g4 | e4{fe}d>B | c4{dc}B/{c}B/A/B/ | {f}g {A}HG3 (3efg |
a2 b {c'b}a{ba}ge | d4 B2 | c4{dc} A2 | B4{cB} A2 | G E2{FE} DEG | A2{c}A2{c}A2- | A4 ||

